!!!COA: Josquin des Prez
!!!CDT: ~1450-1521/08/27
!!!OTL@@LAT: Regina celi letare
!!!AGN: Motet
!!!SCT: NJE 25.3
!!!SCA: New Josquin Edition 25.3
!!!voices: 4
**kern	**kern	**kern	**kern
*staff4	*staff3	*staff2	*staff1
*Ivox	*Ivox	*Ivox	*Ivox
*I"Bassus	*I"Tenor	*I"Altus	*I"Superius
*I'B	*I'T	*I'A	*I'S
*clefF4	*clefGv2	*clefGv2	*clefG2
*k[]	*k[]	*k[]	*k[]
*M2/1	*M2/1	*M2/1	*M2/1
*met(C|)	*met(C|)	*met(C|)	*met(C|)
=1-	=1-	=1-	=1-
1C	0r	0r	0r
1D	.	.	.
=2	=2	=2	=2
1C	0r	0r	0r
1D	.	.	.
=3	=3	=3	=3
2E\	0r	0r	1cc
2C/	.	.	.
1G	.	.	1dd
=4	=4	=4	=4
2A\	0r	0r	1cc
1c	.	.	.
.	.	.	1dd
2B\	.	.	.
=5	=5	=5	=5
1c	1c	0r	1ee
1r	1d	.	1ff
=6	=6	=6	=6
1C	1c	0r	1ee
1BB-	1d	.	2dd\
.	.	.	2ff\
=7	=7	=7	=7
1C	1e	1c	2ee\
.	.	.	4dd\
.	.	.	4cc\
1G	1r	1d	2.b\
.	.	.	4a/
=8	=8	=8	=8
2A\	1r	1c	1cc
1c	.	.	.
.	1f	1d	1r
2B\	.	.	.
=9	=9	=9	=9
2c\	1e	1e	1r
2C/	.	.	.
2D\	2d\	1r	2.ff\
2BB-/	[2f\	.	.
.	.	.	4ee\
=10	=10	=10	=10
2r	2f\]	1r	4dd\
.	.	.	4cc\
2C/	2e\	.	2cc\
2D\	1d	1f	2r
2BB-/	.	.	2dd\
=11	=11	=11	=11
2r	1c	1e	4ee\
.	.	.	4ff\
2C/	.	.	4gg\
.	.	.	4ee\
2D\	1r	2d\	2.ff\
2BB-/	.	[2f\	.
.	.	.	4ee\
=12	=12	=12	=12
2r	1r	2f\]	4dd\
.	.	.	4cc\
2C/	.	2e\	1cc
1D	[1f	1d	.
.	.	.	2b\
=13	=13	=13	=13
1A	2f\]	1c	1cc
.	2e\	.	.
1B	1d	1r	2r
.	.	.	2dd\
=14	=14	=14	=14
1A	1c	1r	1ee
1D	[1d	[1f	2.ff\
.	.	.	4ee\
=15	=15	=15	=15
1r	2d\]	2f\]	4dd\
.	.	.	4cc\
.	2e\	2e\	1cc
2r	2f\	1d	.
2G\	2g\	.	2b\
=16	=16	=16	=16
1A	2e\	1c	2cc\
.	2c\	.	4b\
.	.	.	4a/
2.G\	[1g	[1d	2.b\
4A\	.	.	4cc\
=17	=17	=17	=17
2B\	2g\]	2d\]	2dd\
2c\	4f\	2e\	2g/
.	4e\	.	.
2d\	1d	2f\	2r
2B\	.	2g\	2dd\
=18	=18	=18	=18
1c	0c	2e\	2ee\
.	.	2c\	2.gg\
1C	.	[1g	.
.	.	.	4ff\
.	.	.	[2ee\
=19	=19	=19	=19
1G	0r	2g\]	2ee\]
.	.	4f\	4dd\
.	.	4e\	4cc\
1G	.	1d	2.b\
.	.	.	4a/
=20	=20	=20	=20
2A\	1c	0c	1cc
1c	.	.	.
.	1g	.	1c
4B\	.	.	.
4A\	.	.	.
=21	=21	=21	=21
1G	1g	0r	2d/
.	.	.	1e
1F	1a	.	.
.	.	.	2d/
=22	=22	=22	=22
2E\	0g	1c	0e
2.C/	.	.	.
.	.	1g	.
4D\	.	.	.
4E\	.	.	.
4F\	.	.	.
=23	=23	=23	=23
2G\	1r	1g	0r
1E	.	.	.
.	1f	1a	.
2D\	.	.	.
=24	=24	=24	=24
0E	2e\	0g	0c
.	2.g\	.	.
.	4f\	.	.
.	[2e\	.	.
=25	=25	=25	=25
0r	2e\]	1r	1g
.	4d\	.	.
.	4c\	.	.
.	1d	1f	1a
=26	=26	=26	=26
2.E\	0e	2e\	0g
.	.	2.g\	.
4F\	.	.	.
2G\	.	.	.
.	.	4f\	.
2C/	.	[2e\	.
=27	=27	=27	=27
2G\	0r	2e\]	1r
2A\	.	4d\	.
.	.	4c\	.
1B-	.	1d	1f
=28	=28	=28	=28
0c	1.g	0e	2e/
.	.	.	2c/
.	.	.	2g/
.	2f\	.	2a/
=29	=29	=29	=29
0r	2e\	0r	2b\
.	4d\	.	2cc\
.	4c\	.	.
.	2B\	.	2dd\
.	[2c\	.	[2ee\
=30	=30	=30	=30
1r	2c\]	1.g	2ee\]
.	2e\	.	4dd\
.	.	.	4cc\
1G	1d	.	1dd
.	.	2f\	.
=31	=31	=31	=31
2.c\	1c	2e\	1ee
.	.	4d\	.
4B\	.	4c\	.
2G\	1r	2B\	2dd\
[2A\	.	[2c\	[2cc\
=32	=32	=32	=32
4A\]	1r	2c\]	4cc\]
4G\	.	.	4b\
2E\	.	2e\	2g/
2F\	[1f	1d	2a/
2D\	.	.	2b\
=33	=33	=33	=33
1A	2f\]	1c	1cc
.	2e\	.	.
1B	1d	1r	1dd
=34	=34	=34	=34
1A	1c	1r	1ee
1D	[1d	[1f	2.ff\
.	.	.	4ee\
=35	=35	=35	=35
1r	2d\]	2f\]	4dd\
.	.	.	4cc\
.	2e\	2e\	1cc
2r	2f\	1d	.
2G\	2g\	.	2b\
=36	=36	=36	=36
1A	2e\	1c	2cc\
.	2c\	.	4b\
.	.	.	4a/
2.G\	[1g	[1d	2.b\
4A\	.	.	4cc\
=37	=37	=37	=37
2B\	2g\]	2d\]	2dd\
2c\	4f\	2e\	2g/
.	4e\	.	.
2d\	1d	2f\	2r
2B\	.	2g\	2dd\
=38	=38	=38	=38
0c	0c	2e\	2ee\
.	.	2c\	2.gg\
.	.	[1g	.
.	.	.	4ff\
.	.	.	[2ee\
=39	=39	=39	=39
0r	1r	2g\]	2ee\]
.	.	4f\	4dd\
.	.	4e\	4cc\
.	1f	1d	2.b\
.	.	.	4a/
=40	=40	=40	=40
1r	1g	0c	1.cc
1F	1a	.	.
.	.	.	4b\
.	.	.	4a/
=41	=41	=41	=41
1G	2g\	1r	2b\
.	2b\	.	2.dd\
1d	1a	1f	.
.	.	.	4cc\
.	.	.	2a/
=42	=42	=42	=42
1G	1g	1g	2b\
.	.	.	2.dd\
2r	1r	1a	.
.	.	.	4cc\
2F\	.	.	2a/
=43	=43	=43	=43
1G	0r	2g\	2b\
.	.	2b\	1g
1d	.	1a	.
.	.	.	2f#i/
=44	=44	=44	=44
1G	1g	1g	2g/
.	.	.	4a/
.	.	.	4b\
1A	1c	1r	2cc\
.	.	.	4dd\
.	.	.	4ee\
=45	=45	=45	=45
1F	0d	0r	4ff\
.	.	.	4ee\
.	.	.	4dd\
.	.	.	4cc\
1G	.	.	2.b\
.	.	.	4a/
=46	=46	=46	=46
1C	1c	1g	2.cc\
.	.	.	4b\
1F	2r	1c	2cc\
.	[2f\	.	[2a/
=47	=47	=47	=47
1D	2f\]	0d	4a/]
.	.	.	4g/
.	2d\	.	2a/
1G	1d	.	4b\
.	.	.	4a/
.	.	.	4g/
.	.	.	4f/
=48	=48	=48	=48
2.C/	2.g\	1c	2.e/
4D\	4f\	.	4f/
2E\	2e\	2r	2g/
[2F\	2d\	[2f\	[2a/
=49	=49	=49	=49
2F\]	2c\	2f\]	2a/]
2.G\	2B\	2d\	2.b\
.	[1g	1d	.
4A\	.	.	4cc\
2B\	.	.	2dd\
=50	=50	=50	=50
1c	2g\]	2.g\	2.ee\
.	2c\	.	.
.	.	4f\	4dd\
2C/	2.g\	2e\	2cc\
2G\	.	2d\	2b\
.	4f\	.	.
=51	=51	=51	=51
2C/	4e\	2c\	1.gg
.	4d\	.	.
2G\	1e	2B\	.
4C/	.	[1g	.
4D\	.	.	.
4E\	2c\	.	4ff\
4F\	.	.	4ee\
=52	=52	=52	=52
2G\	2B\	2g\]	2dd\
2A\	2c\	2c\	1cc
1G	1d	2.g\	.
.	.	.	2b\
.	.	4f\	.
=53	=53	=53	=53
2r	0c	4e\	1.gg
.	.	4d\	.
2.C/	.	1e	.
4D\	.	.	.
4E\	.	2c\	4ff\
4F\	.	.	4ee\
=54	=54	=54	=54
2G\	0r	2B\	2dd\
2A\	.	2c\	1cc
1G	.	1d	.
.	.	.	2b\
=55	=55	=55	=55
0C	0g	0c	2cc\
.	.	.	2.g/
.	.	.	4f/
.	.	.	[2e/
=56	=56	=56	=56
0r	1c	0r	2e/]
.	.	.	4d/
.	.	.	4c/
.	1d	.	1B
=57	=57	=57	=57
0r	2e\	0g	0c
.	2.g\	.	.
.	4f\	.	.
.	[2e\	.	.
=58	=58	=58	=58
0r	2e\]	1c	0r
.	4d\	.	.
.	4c\	.	.
.	2.B\	1d	.
.	4A/	.	.
=59	=59	=59	=59
0r	0c	2e\	0g
.	.	2.g\	.
.	.	4f\	.
.	.	[2e\	.
=60	=60	=60	=60
1r	0r	2e\]	1c
.	.	4d\	.
.	.	4c\	.
1G	.	2.B\	1d
.	.	4A/	.
=61	=61	=61	=61
1C	1c	0c	2e/
.	.	.	2.g/
2C/	1c	.	.
.	.	.	4f/
[2c\	.	.	[2e/
=62	=62	=62	=62
2c\]	2.e\	0r	2e/]
2A\	.	.	4d/
.	4f\	.	4c/
1G	[1g	.	1B
=63	=63	=63	=63
[0C	2g\]	1c	1c
.	4f\	.	.
.	4g\	.	.
.	1a	1c	1r
=64	=64	=64	=64
0C]	1.g	2.e\	1c
.	.	4f\	.
.	.	[1g	1c
.	2f\	.	.
=65	=65	=65	=65
0r	1e	2g\]	2e/
.	.	4f\	2g/
.	.	4g\	.
.	1d	1a	2.f/
.	.	.	4e/
=66	=66	=66	=66
2.E\	0e	1.g	2.g/
4F\	.	.	4a/
2G\	.	.	2b\
[2A\	.	2f\	[2cc\
=67	=67	=67	=67
4A\]	0r	1e	4cc\]
4G\	.	.	4b\
2E\	.	.	2g/
1F	.	1d	1a
=68	=68	=68	=68
2.E\	1.g	0e	1g
4F\	.	.	.
2G\	.	.	1r
[2A\	2f\	.	.
=69	=69	=69	=69
4A\]	2e\	0r	0r
4G\	.	.	.
4F\	4d\	.	.
4E\	4c\	.	.
1D	2.B\	.	.
.	4A/	.	.
=70	=70	=70	=70
2.C/	1c	1.g	2.e/
4D\	.	.	4f/
2E\	2r	.	2g/
2F\	2c\	2f\	[2a/
=71	=71	=71	=71
1C	1c	2e\	4a/]
.	.	.	4g/
.	.	4d\	4f/
.	.	4c\	4e/
1r	2r	2.B\	1d
.	2d\	.	.
.	.	4A/	.
=72	=72	=72	=72
1C	2e\	1c	1c
.	2c\	.	.
1c	1e	2r	1g
.	.	2c\	.
=73	=73	=73	=73
1A	1f	1c	1a
1G	[1g	2r	1b
.	.	2d\	.
=74	=74	=74	=74
2r	0g]	2e\	1cc
2C/	.	2c\	.
1c	.	1e	2r
.	.	.	2c/
=75	=75	=75	=75
1A	2r	1f	1c
.	2c\	.	.
2G\	2B\	[1g	2d/
[2C/	2c\	.	[2e/
=76	=76	=76	=76
1C]	2G/	0g]	2e/]
.	2c\	.	2c/
2G\	2B\	.	2d/
2C/	2c\	.	4e/
.	.	.	4f/
=77	=77	=77	=77
2.E\	2G/	2r	2.g/
.	1g	2c\	.
4F\	.	.	4f/
2G\	.	2B\	2d/
[2C/	[2g\	2c\	2c/
=78	=78	=78	=78
1C]	2g\]	2G/	2.e/
.	2.g\	2c\	.
.	.	.	4f/
2E\	.	2B\	2g/
.	4f\	.	.
2C/	[2e\	2c\	[2g/
=79	=79	=79	=79
2.E\	2e\]	2G/	2g/]
.	4d\	1g	4f/
4F\	4c\	.	4e/
1G	2.B\	.	1d
.	.	[2g\	.
.	4A/	.	.
=80	=80	=80	=80
2r	1c	2g\]	1c
2C/	.	2.g\	.
1c	2r	.	1r
.	.	4f\	.
.	2c\	[2e\	.
=81	=81	=81	=81
1A	1c	2e\]	0r
.	.	4d\	.
.	.	4c\	.
1G	2r	2.B\	.
.	2d\	.	.
.	.	4A/	.
=82	=82	=82	=82
2r	2e\	1c	1r
2C/	2c\	.	.
1c	1e	2r	2r
.	.	2c\	2g/
=83	=83	=83	=83
1A	1f	1c	1a
1G	[1g	2r	1b
.	.	2d\	.
=84	=84	=84	=84
2r	1g]	2e\	1cc
2C/	.	2c\	.
1c	2r	1e	2r
.	2c\	.	2g/
=85	=85	=85	=85
1A	1c	1f	1a
1G	2r	[1g	1b
.	2d\	.	.
=86	=86	=86	=86
1r	2e\	1g]	2cc\
.	2c\	.	2.gg\
[1c	2e\	2r	.
.	.	.	4ff\
.	2f\	2c\	[2ee\
=87	=87	=87	=87
1c]	0g	1c	2ee\]
.	.	.	4dd\
.	.	.	4cc\
1G	.	2r	2b\
.	.	2d\	[2gg\
=88	=88	=88	=88
2.c\	0c	2e\	4gg\]
.	.	.	4ff\
.	.	2c\	1ee
4B\	.	.	.
1A	.	2e\	.
.	.	2f\	4dd\
.	.	.	4cc\
=89	=89	=89	=89
0G;	0d;	0g;	0b;
=90	=90	=90	=90
00C	00c	00g	00cc
==	==	==	==
*-	*-	*-	*-
!!!RDF**kern: l=long note in original notation
!!!RDF**kern: i=editorial accidental
!!!ENC:	Will Watson 15/07/2011
!!!END:	2011/07/15/
!!!EED:	Jesse Rodin
!!!EEV:	2011/10/17/
!!attribution-level@Jos: 3 (tricky)
!!!ONB:	Translated from MusicXML and edited on 2011/10/17/ by Craig Sapp
!!muse2ps: C^@{COA}?\n@{SCT}^I150v90,90,90,150i2I150c90Q16
